src/icon/action/add-filled/icon_add-filled_l_black.svg

<svg width="30px" height="30px" viewBox="0 0 30 30" version="1.1" xmlns="http://www.w3.org/2000/svg"><g stroke="none" stroke-width="1" fill="none" fill-rule="evenodd"><path d="M16,14 L16,10 C16,9.44771525 15.5522847,9 15,9 C14.4477153,9 14,9.44771525 14,10 L14,14 L10,14 C9.44771525,14 9,14.4477153 9,15 C9,15.5522847 9.44771525,16 10,16 L14,16 L14,20 C14,20.5522847 14.4477153,21 15,21 C15.5522847,21 16,20.5522847 16,20 L16,16 L20,16 C20.5522847,16 21,15.5522847 21,15 C21,14.4477153 20.5522847,14 20,14 L16,14 Z M15,27 C8.372583,27 3,21.627417 3,15 C3,8.372583 8.372583,3 15,3 C21.627417,3 27,8.372583 27,15 C27,21.627417 21.627417,27 15,27 Z" fill-opacity="0.7" fill="#0B1F35" opacity="0.900000036"/><rect x="0" y="0" width="30" height="30"/></g></svg>

<svg width="30" height="30" viewBox="0 0 30 30" xmlns="http://www.w3.org/2000/svg"><g fill="none" fill-rule="evenodd"><path d="M16 14v-4a1 1 0 0 0-2 0v4h-4a1 1 0 0 0 0 2h4v4a1 1 0 0 0 2 0v-4h4a1 1 0 0 0 0-2h-4zm-1 13C8.373 27 3 21.627 3 15S8.373 3 15 3s12 5.373 12 12-5.373 12-12 12z" fill-opacity=".7" fill="#0B1F35" opacity=".9"/><path d="M0 0h30v30H0z"/></g></svg>
